X:1
T:Title
L:1/8
M:4/4
I:linebreak $
K:A
V:1 treble nm="Voice"
V:1
"A" EAcA BAFA | EAcA BAFA |"E" e2 ef"A" ecAB | cABc BAFA |"A" EAcA BAFA | EAcA BAFA | %6
"E" e2 ef"A" ecAB |1 cABc A3 F :|2 cABc A2 (3Bcd |:"A" e2 ef ecBA |"D" f2 Af f2 ed |"A" cdef ecAB | %12
 cABc"E" BAFA |"A" e2 ef ecBA |"D" f2 Af f2 ed |"A" cdef ecAB |1 cABc A2 (3Bcd :|2 cABc A3 F |] %18
